X:26081
T: Dumfries Lasses
O: RSCDS 26-8
B: RSCDS 26-8
R: march, air
Z: John Chambers <jc:trillian.mit.edu>
M: C|
L: 1/8
%--------------------
K: D
A2 \
| "D"D2FG A3B | A2F2 f3e | d2f2 A2F2 | "Em"B2E2 "A7"E2F2 \
| "D"D2FG A3B | A2F2 f2d2 | A2d2 "A7"cde2 | "D"f2d2 d2 ||
fg \
| "D"a3f d2d2 | d2fg a2f2 | "G"b3g "Em"e2d2 | "A7"c2e2 A2G2 \
| "D"F2A2 def2 | "G"G2B2 "Em"e2fg | "D"f2a2 "A7"efg2 | "D"f2d2 d2 |]
